_includes/icons/ios-audit.svg

<svg fill="#666" height="50" viewBox="0 0 50 50" width="50" xmlns="http://www.w3.org/2000/svg"><path d="m25 1c-2.199219 0-4 1.800781-4 4v1h-9c-1.644531 0-3 1.355469-3 3v37c0 1.644531 1.355469 3 3 3h26c1.644531 0 3-1.355469 3-3v-37c0-1.644531-1.355469-3-3-3h-9v-1c0-2.199219-1.800781-4-4-4zm0 2c1.117188 0 2 .882813 2 2v1.832031c-.019531.109375-.019531.21875 0 .324219v1.84375h-4v-1.832031c.019531-.109375.019531-.21875 0-.324219v-1.84375c0-1.117187.882813-2 2-2zm0 1c-.550781 0-1 .449219-1 1s.449219 1 1 1 1-.449219 1-1-.449219-1-1-1zm-13 4h9v2c0 .550781.449219 1 1 1h6c.550781 0 1-.449219 1-1v-2h9c.566406 0 1 .433594 1 1v37c0 .566406-.433594 1-1 1h-26c-.566406 0-1-.433594-1-1v-37c0-.566406.433594-1 1-1zm21.292969 13.292969-11.292969 11.292969-5.292969-5.292969-1.414062 1.414062 6.707031 6.707032 12.707031-12.707032z"/></svg>

<svg xmlns="http://www.w3.org/2000/svg" viewBox="0 0 50 50" width="50" height="50" fill="#666"><path d="M 25 1 C 22.800781 1 21 2.800781 21 5 L 21 6 L 12 6 C 10.355469 6 9 7.355469 9 9 L 9 46 C 9 47.644531 10.355469 49 12 49 L 38 49 C 39.644531 49 41 47.644531 41 46 L 41 9 C 41 7.355469 39.644531 6 38 6 L 29 6 L 29 5 C 29 2.800781 27.199219 1 25 1 Z M 25 3 C 26.117188 3 27 3.882813 27 5 L 27 6.832031 C 26.980469 6.941406 26.980469 7.050781 27 7.15625 L 27 9 L 23 9 L 23 7.167969 C 23.019531 7.058594 23.019531 6.949219 23 6.84375 L 23 5 C 23 3.882813 23.882813 3 25 3 Z M 25 4 C 24.449219 4 24 4.449219 24 5 C 24 5.550781 24.449219 6 25 6 C 25.550781 6 26 5.550781 26 5 C 26 4.449219 25.550781 4 25 4 Z M 12 8 L 21 8 L 21 10 C 21 10.550781 21.449219 11 22 11 L 28 11 C 28.550781 11 29 10.550781 29 10 L 29 8 L 38 8 C 38.566406 8 39 8.433594 39 9 L 39 46 C 39 46.566406 38.566406 47 38 47 L 12 47 C 11.433594 47 11 46.566406 11 46 L 11 9 C 11 8.433594 11.433594 8 12 8 Z M 33.292969 21.292969 L 22 32.585938 L 16.707031 27.292969 L 15.292969 28.707031 L 22 35.414063 L 34.707031 22.707031 Z"/></svg>
